gama.ui.shared/icons_svg/dark/editor/toggle.comment.svg

<svg height="25" viewBox="-418.483 -3263.748 25 25" width="25" xmlns="http://www.w3.org/2000/svg"><g fill="none"><path d="m-414.1427-3263.248h16.32c2.12075 0 3.84 1.719 3.84 3.84v16.32c0 2.1207-1.71925 3.84-3.84 3.84h-16.32c-2.1208 0-3.84-1.7193-3.84-3.84v-16.32c0-2.121 1.7192-3.84 3.84-3.84z" fill="#666"/><g stroke-linecap="round" stroke-linejoin="round"><path d="m-414.1427-3263.248h16.32c2.12075 0 3.84 1.719 3.84 3.84v16.32c0 2.1207-1.71925 3.84-3.84 3.84h-16.32c-2.1208 0-3.84-1.7193-3.84-3.84v-16.32c0-2.121 1.7192-3.84 3.84-3.84z" stroke="#fff" stroke-width=".25"/><path d="m-407.09326-3246.265 7.11056-9.966" stroke="#95c1ec"/><path d="m-411.98273-3246.265 7.11053-9.966" stroke="#95c1ec"/></g></g></svg>

<?xml version="1.0" encoding="UTF-8" standalone="no"?>
<!DOCTYPE svg PUBLIC "-//W3C//DTD SVG 1.1//EN" "http://www.w3.org/Graphics/SVG/1.1/DTD/svg11.dtd">
<svg xmlns="http://www.w3.org/2000/svg" xmlns:xl="http://www.w3.org/1999/xlink" version="1.1" xmlns:dc="http://purl.org/dc/elements/1.1/" viewBox="-418.4827 -3263.748 25 25" width="25" height="25">
  <defs/>
  <g id="SOURCES" stroke-opacity="1" fill="none" stroke="none" fill-opacity="1" stroke-dasharray="none">
    <title>SOURCES</title>
    <g id="SOURCES_Dark">
      <title>Dark</title>
      <g id="Graphic_11405">
        <title>views/view.other</title>
        <path d="M -414.1427 -3263.248 L -397.8227 -3263.248 C -395.70195 -3263.248 -393.9827 -3261.529 -393.9827 -3259.408 L -393.9827 -3243.088 C -393.9827 -3240.9673 -395.70195 -3239.248 -397.8227 -3239.248 L -414.1427 -3239.248 C -416.2635 -3239.248 -417.9827 -3240.9673 -417.9827 -3243.088 L -417.9827 -3259.408 C -417.9827 -3261.529 -416.2635 -3263.248 -414.1427 -3263.248 Z" fill="#666"/>
        <path d="M -414.1427 -3263.248 L -397.8227 -3263.248 C -395.70195 -3263.248 -393.9827 -3261.529 -393.9827 -3259.408 L -393.9827 -3243.088 C -393.9827 -3240.9673 -395.70195 -3239.248 -397.8227 -3239.248 L -414.1427 -3239.248 C -416.2635 -3239.248 -417.9827 -3240.9673 -417.9827 -3243.088 L -417.9827 -3259.408 C -417.9827 -3261.529 -416.2635 -3263.248 -414.1427 -3263.248 Z" stroke="white" stroke-linecap="round" stroke-linejoin="round" stroke-width=".25"/>
      </g>
      <g id="Line_11404">
        <line x1="-407.09326" y1="-3246.265" x2="-399.9827" y2="-3256.231" stroke="#95c1ec" stroke-linecap="round" stroke-linejoin="round" stroke-width="1"/>
      </g>
      <g id="Line_11403">
        <line x1="-411.98273" y1="-3246.265" x2="-404.8722" y2="-3256.231" stroke="#95c1ec" stroke-linecap="round" stroke-linejoin="round" stroke-width="1"/>
      </g>
    </g>
  </g>
</svg>
